!!!OTL: Subei youge Chenjiangjun
!!!ARE: Asia, China,ÿJiangsu Dongtai
!! III, 457
!!!SCT: C2022
!!!YEM: Copyright 1995, estate of Helmut Schaffrath.
**kern
*ICvox
*Ivox
*M2/4
*k[b-]
*F:
{8cc
8gg
16ff
16gg
16ff
16dd
=1
8cc
8gg
16ff
16gg
16ff
16dd
=2
8cc
8g
8r
16g
16a
=3
8cc
16a
16g
4f}
=4
{8cc
8gg
16ff
16gg
16ff
16dd
=5
8cc
8gg
16ff
16gg
16ff
16dd
=6
8cc
8g
8r
16g
16a
=7
8cc
16a
16g
4f}
=8
{8.cc
16aa
16gg
16ff
16dd
16cc
=9
8ff
4ff
16gg
16ff
=10
8cc
8g
8r
16g
16a
=11
8.cc
16a
4g}
=12
{8.dd
16ff
16dd
16cc
16a
16cc
=13
8dd
4dd
8ff
=14
8.gg
16aa
16ff
16gg
8dd
=15
8cc
4cc
8a}
=16
{8.g
16cc
8a
8g
=17
8f
8a
16g
16f
8d
=18
2f}
==
!!!AGN: Xiaodiao, Wuge, Huagu diao
!!!AMT: simple duple
!!!AIN: vox
!!!EED: Helmut Schaffrath
!!!EEV: 1.0
*-
